X:1
T:The Two Sisters
M:2/4
L:1/8
K:C
 G3- E| DD E2 GG G2| G2 g2 e4| e3 dB-A G2| E2 D2| G4| DD EE G3 A| G2 g2 e3 e|\
 ee d2 B2 AG|
M:2/4
 E2 D2| G4|||
